X:1
T:Coming for Me
T:Thoro Harris, 1920
T:Coming for Me
T:Public Domain
T:Public Domain
C:Thoro Harris, 1920
Z:Public Domain
%%score ( 1 2 ) ( 3 4 )
L:1/8
M:6/8
K:Ab
V:1 treble 
V:2 treble 
V:3 bass 
V:4 bass 
V:1
 [CE][=B,=D][CE] [_DF]2 [Fd] | ([Ec]2 [CA]) [Ec]3 | [Dc][DB][DG] [DF]2 [DG] | ([=B,F]3 [CE]2) z | %4
w: 1.~Je- sus the King is|com- * ing|Lo, in the east- ern|sky, *|
w: 2.~Je- sus is quick- ly|com- * ing;|’Twill not be ve- ry|long *|
w: 3.~Then all who sleep in|Je- * sus,|Wak- ing shall up- ward|rise; *|
w: 4.~O what a glo- rious|pros- * pect!|O what a hope di-|vine! *|
w: 5.~Heir to the life im-|mor- * tal,|Joint rul- er on His|throne, *|
w: 6.~Glo- ry to God the|Fa- * ther,|Glo- ry to Christ the|Son, *|
 [CE][=B,=D][CE] [_DF]2 [Fd] | [Ec]2 [CA] [Fc][=EB][FA] | [EG]2 [EB] [=DB]2 [B,D] | %7
w: Signs of ap- proach- ing|glo- ry; Sure- ly re-|demp- tion draw- eth|
w: Ere we shall hail our|Bride- groom With all the|bright, an- gel- ic|
w: “We who re- main,” to-|ge- ther With them caught|up to Par- a-|
w: Thru the e- ter- nal|ag- es Je- sus will|be for- ev- er|
w: Par- tak- er of His|glo- ry, Je- sus will|be my ve- ry|
w: And to the Ho- ly|Spir- it For our re-|demp- tion free- ly|
 [B,E]3- [B,E]2 z ||"^Refrain" [Ed]3 [DB]3 | [Ec]3 [CA]3 | [Ec][EB][DG] [CA]2 [=DF] | %11
w: nigh. *||||
w: throng. *|Com- ing,|com- ing,|Com- ing a- gain for|
w: dise. *||||
w: mine. *||||
w: own. *||||
w: won. *||||
 [DB]3- [DB]2 z | [CE][=B,=D][CE] [_DF]2 [Fd] | [Ec]2 [CA] [Ec][=EB][FA] | [AB]3 [Ge]3 | A3- A2 |] %16
w: |||||
w: me; *|Soon I shall see my|Sav- ior, Like Him I|then shall|be. *|
w: |||||
w: |||||
w: |||||
w: |||||
V:2
 x6 | x6 | x6 | x6 | x6 | x6 | x6 | x6 || x6 | x6 | x6 | x6 | x6 | x6 | x6 | A3- A2 |] %16
V:3
 [A,,A,][A,,A,][A,,A,] [D,A,]2 [D,A,] | (A,2 E,) [A,,A,]3 | [E,G,][E,G,][E,G,] [E,B,]2 [E,G,] | %3
w: ~ ~ ~ ~ ~|~ * ~|~ ~ ~ ~ ~|
 (z =D,F, [A,,A,]2) z | [A,,A,][A,,A,][A,,A,] [D,A,]2 [D,A,] | A,2 A, [F,A,][G,D][A,C] | %6
w: |* ~ ~ ~ ~|~ ~ ~ ~ ~|
 B,2 [G,B,] [F,A,]2 [B,,A,] | [E,G,]3- [E,G,]2 z || [E,B,]2 [E,B,] [E,G,]2 [E,G,] | %9
w: ~ ~ ~ Christ|com- *|ing, Christ is com-|
 [A,,A,]2 [A,,A,] [A,,E,]2 [A,,A,] | A,[G,D][=E,B,] [F,A,]2 [B,,A,] | E,F,E, D,C,B,, | %12
w: ing, ~ ~ ~|~ ~ ~ hal- le-|jah! * * * * *|
 [A,,A,][A,,A,][A,,A,] [D,A,]2 [D,A,] | A,2 A, A,[G,B,][F,C] | [F,=D]3 [E,_D]3 | [A,C]3- [A,C]2 |] %16
w: ||||
V:4
 x6 | A,,3 x3 | x6 | [A,,A,]3- x3 | x6 | A,2 A, x3 | B,2 x4 | x6 || x6 | x6 | A, x5 | G,3- G,2 x | %12
w: |~||~||~ ~|is||||lu-||
 x6 | A,2 A, A, x2 | x6 | x5 |] %16
w: ||||

